!!!OTL: Wehrmannslied.
!!!OTL-incipit: LIEBE SONNE DU GEHST UNTER
!!!ARE: Europa, Mitteleuropa, Deutschland, Bayern
!!!SCT: Z0178
!!!TXL: @@DE
!!!YEM: Copyright 1995, estate of Helmut Schaffrath.
**kern	**text
*ICvox	*
*M2/4	*
*k[f#]	*
*G:	*
!LO:TX:a:t=Bairiſch.	!
{16d	Lie-
16d	-be
=1	=1
8.g	Son-
16g	-ne,
8g	du
8g	gehſt
=2	=2
8gL	un-
8f#J	.
4f#	-ter,
=3	=3
4r}	.
{8a	lie-
8b/	-ber
=4	=4
8ccL	Mond,
8dJ	.
8d	komm
8f#	her-
=5	=5
4g	-auf,
8r}	.
{16d	Wir
16d	Wehr-
=6	=6
8.g	-män-
16g	-ner
8g	ſind
8g	ſtets
=7	=7
8gL	mun-
8f#J	.
4f#	-ter,
=8	=8
4r}	.
{8a	wa-
8b/	-chen
=9	=9
8ccL	frühe
8dJ	.
8d	wie-
8f#	-der
=10	=10
4g	auf.
8r}	.
{8g	Wir
=11	=11
8g	ha-
8b/	-ben
8dd	Köpfe
8b	.
=12	=12
8b/	wie
8g	die
16gL	Ʒün-
16eJ	.
8e}	-der,
=13	=13
{(8ccL	ha-
8bJ)	.
(8aL	-ben
8gJ)	.
=14	=14
16f#	ei-
16f#	-ſer-
8e	-nen
4d	Sinn,
=15	=15
4r}	.
{8d	ha-
8c	-ben
=16	=16
8B	Her-
8d	-ʒen
8g	wie
8b/	die
=17	=17
4dd	Kin-
8cc}	-der
{8a	und
=18	=18
8b/	Menſchlich-
8b/	.
8b/	-keit
8a	dar-
=19	=19
4g	-in.
8r}	.
==	==
!!!AGN: Soldaten -, Jaeger - Lied
!!!ONB: ESAC (Essen Associative Code) Database: ZUCCAL
!!!AMT: simple duple
!!!AIN: vox
!!!EED: Helmut Schaffrath
!!!EEV: 1.0
!!!GTL: III. Soldaten-, Jaeger-, Schiffer-, Fuhrmanns- und Handwerks-Lieder.
!!!URL-scan: https://www.digitale-sammlungen.de/de/view/bsb11160571?page=333
!!!ENC: Anna Maria Matuszewska
!!!EEV: 2025/01/28
*-	*-
